public/images/Footer/shopify-partner.svg

<svg width="156" height="26" viewBox="0 0 156 26" fill="none" xmlns="http://www.w3.org/2000/svg">
<g clip-path="url(#clip0)">
<path d="M92.8324 25.3361L94.9678 13.8222C95.2275 12.4082 95.4295 11.1963 95.5738 10.042H96.4972L96.151 12.3505H96.2087C97.161 10.9077 98.5172 9.89771 99.9312 9.89771C101.951 9.89771 102.73 11.5714 102.73 13.3317C102.73 16.9388 100.249 21.0942 96.8435 21.0942C95.8047 21.0942 95.1121 20.719 94.7081 20.719H94.6504L93.8136 25.3361H92.8324ZM94.8524 19.507C95.343 19.8822 96.0644 20.113 96.9301 20.113C99.7581 20.113 101.72 16.1019 101.72 13.3605C101.72 12.0908 101.23 10.6768 99.6426 10.6768C98.1132 10.6768 96.151 12.6102 95.545 15.8422L94.8524 19.507Z" fill="white"/>
<path d="M109.973 21.0077C109.944 20.142 110.089 19.2763 110.233 18.122H110.175C108.963 20.4305 107.578 21.0943 106.193 21.0943C104.577 21.0943 103.596 19.6803 103.596 17.7757C103.596 14.1109 106.193 9.84009 110.348 9.84009C111.099 9.84009 111.964 9.92666 112.513 10.1287L111.387 16.0154C111.012 18.0354 110.868 19.8534 110.926 21.0077H109.973ZM111.387 10.7924C111.156 10.7058 110.752 10.6481 110.089 10.6481C107.001 10.6481 104.606 14.082 104.577 17.4583C104.548 18.8723 104.952 20.1131 106.395 20.1131C108.127 20.1131 110.089 17.516 110.608 14.7457L111.387 10.7924Z" fill="white"/>
<path d="M113.205 21.0076L114.562 13.6779C114.821 12.3217 114.995 11.1963 115.081 10.042H115.947C115.889 10.9077 115.803 11.4848 115.658 12.6391H115.716C116.351 11.1963 117.418 9.95542 118.775 9.95542C118.919 9.95542 119.063 9.89771 119.179 9.89771L118.977 10.8788C118.89 10.85 118.775 10.85 118.63 10.85C117.216 10.85 115.658 13.1008 115.225 15.4382L114.187 21.0076H113.205Z" fill="white"/>
<path d="M123.536 7.67578L123.074 10.0132H125.585L125.412 10.8789H122.901L121.718 17.2274C121.574 17.9488 121.487 18.4971 121.487 19.0742C121.487 19.7091 121.776 20.0842 122.44 20.0842C122.786 20.0842 123.017 20.0554 123.219 19.9976L123.276 20.7768C122.988 20.8634 122.613 20.9211 122.238 20.9211C120.968 20.9211 120.477 20.0842 120.477 19.1897C120.477 18.6125 120.535 18.0642 120.708 17.2562L121.92 10.9077H120.391L120.535 10.042H122.093L122.44 8.10863L123.536 7.67578Z" fill="white"/>
<path d="M125.47 21.0076L126.884 13.3317C127.114 12.062 127.259 10.9077 127.345 10.042H128.269L127.951 12.3506H128.009C128.932 10.9077 130.289 9.8689 131.76 9.8689C132.799 9.8689 134.155 10.5037 134.155 12.5237C134.155 13.072 134.069 13.7069 133.953 14.284L132.741 20.9788H131.789L133.03 14.2551C133.117 13.7646 133.174 13.1874 133.174 12.6392C133.174 11.5137 132.741 10.6769 131.414 10.6769C130 10.6769 127.951 12.5814 127.49 15.1786L126.451 20.9788H125.47V21.0076Z" fill="white"/>
<path d="M141.86 20.1132C141.312 20.4883 140.273 20.9212 138.946 20.9212C136.435 20.9212 135.569 18.9589 135.569 16.9101C135.569 13.8224 137.734 9.81128 140.793 9.81128C142.553 9.81128 143.303 10.9367 143.303 12.1487C143.303 14.8612 140.187 15.6115 136.695 15.6115C136.579 16.1021 136.551 17.5161 136.781 18.2952C137.157 19.5072 137.993 20.1132 139.119 20.1132C140.302 20.1132 141.11 19.6803 141.601 19.3917L141.86 20.1132ZM142.322 12.1775C142.322 11.1964 141.629 10.6481 140.619 10.6481C138.975 10.6481 137.503 12.4373 136.839 14.7458C139.638 14.7747 142.322 14.3129 142.322 12.1775Z" fill="white"/>
<path d="M143.938 21.0076L145.294 13.6779C145.554 12.3217 145.727 11.1963 145.814 10.042H146.679C146.622 10.9077 146.535 11.4848 146.391 12.6391H146.448C147.083 11.1963 148.151 9.95542 149.507 9.95542C149.652 9.95542 149.796 9.89771 149.911 9.89771L149.709 10.8788C149.623 10.85 149.507 10.85 149.363 10.85C147.949 10.85 146.391 13.1008 145.958 15.4382L144.919 21.0076H143.938Z" fill="white"/>
<path d="M149.565 19.4783C149.94 19.7669 150.661 20.0843 151.441 20.0843C152.855 20.0843 153.807 19.0743 153.807 17.8623C153.807 16.7946 153.374 16.1598 152.364 15.4961C151.296 14.8035 150.719 13.8512 150.719 12.8412C150.719 11.1676 152.075 9.81128 153.98 9.81128C154.701 9.81128 155.423 10.0421 155.74 10.273L155.394 11.1098C155.048 10.9078 154.499 10.677 153.865 10.677C152.566 10.677 151.7 11.6004 151.7 12.697C151.7 13.707 152.277 14.2552 153.143 14.8612C154.182 15.5538 154.788 16.5349 154.788 17.6315C154.788 19.7957 153.201 20.9789 151.354 20.9789C150.402 20.9789 149.536 20.6326 149.19 20.344L149.565 19.4783Z" fill="white"/>
<path d="M8.33961 8.4261C8.31076 8.4261 8.31076 8.4261 8.2819 8.4261C8.05105 8.39724 7.82019 8.16639 7.82019 7.93554C7.82019 7.70468 7.67591 2.19303 10.9079 0.952184C11.7159 0.634759 12.4661 0.72133 13.101 1.15418C13.8513 1.70246 14.4284 2.79902 14.7747 4.38615C15.0055 5.51156 15.0633 6.46384 15.0633 6.52155C15.0633 6.75241 14.8901 6.92555 14.6304 6.89669C14.3995 6.86783 14.1687 6.63698 14.1687 6.40612C14.1398 5.39614 13.7936 2.65474 12.6681 1.8756C12.3219 1.61589 11.889 1.58703 11.3407 1.81789C8.57047 2.88559 8.71475 8.05096 8.71475 8.10868C8.71475 8.28182 8.54161 8.4261 8.33961 8.4261Z" fill="#9DBD32"/>
<path d="M15.2364 3.02982L2.7414 6.89664C2.7414 6.89664 2.19312 7.04092 2.07769 7.18521C1.96226 7.35835 1.93341 7.7912 1.93341 7.7912L0 22.6813L14.4861 25.3939L15.5827 3.00097C15.4384 2.97211 15.2653 3.00097 15.2364 3.02982Z" fill="#9DBD32"/>
<path d="M19.5361 4.93438C19.5361 4.93438 19.5072 4.81896 19.4495 4.7901C19.3918 4.76124 19.3053 4.73239 19.3053 4.73239L17.2564 4.5881L15.7559 3.08755C15.6981 3.02983 15.6404 3.02983 15.5539 3.00098L14.4862 25.3939L22.3352 23.6913L19.5361 4.93438Z" fill="#608D2F"/>
<path d="M10.0711 15.4383C9.84024 15.1497 9.58052 14.89 9.32081 14.6592C9.0611 14.4283 8.77253 14.2263 8.48397 14.0532C8.28197 13.9377 8.10883 13.8223 7.96454 13.7069C7.82026 13.5915 7.70483 13.476 7.61826 13.3606C7.53169 13.2452 7.44512 13.1297 7.41626 13.0143C7.35855 12.8989 7.35855 12.7835 7.35855 12.668C7.35855 12.4949 7.41626 12.3506 7.47398 12.2063C7.53169 12.062 7.61826 11.9466 7.73369 11.86C7.84912 11.7735 7.9934 11.6869 8.13768 11.6292C8.31082 11.5715 8.48397 11.5426 8.68596 11.5138C8.91682 11.5138 9.11882 11.5138 9.32081 11.5426C9.52281 11.5715 9.72481 11.6003 9.89795 11.658C10.0711 11.7158 10.2442 11.7446 10.4174 11.8023C10.5617 11.86 10.7059 11.9178 10.8214 11.9755L11.7736 9.08979C11.6294 9.00322 11.4562 8.9455 11.2542 8.88779C11.0522 8.83007 10.8214 8.77236 10.5905 8.7435C10.3597 8.71465 10.0711 8.68579 9.81138 8.68579C9.52281 8.68579 9.23424 8.71465 8.94567 8.7435C8.28197 8.83007 7.70483 9.00322 7.18541 9.26293C6.66599 9.52264 6.23313 9.84006 5.88685 10.2441C5.54057 10.6192 5.252 11.0809 5.05 11.5715C4.84801 12.062 4.73258 12.6103 4.70372 13.1875C4.67486 13.5337 4.73258 13.8512 4.79029 14.1686C4.87686 14.4572 4.99229 14.7457 5.13657 15.0054C5.28086 15.2651 5.48286 15.496 5.68485 15.7269C5.88685 15.9577 6.14656 16.1597 6.37742 16.3329C6.57942 16.4771 6.75256 16.6214 6.89684 16.7657C7.04112 16.91 7.15655 17.0254 7.24312 17.1697C7.32969 17.314 7.38741 17.4294 7.44512 17.5737C7.47398 17.718 7.50283 17.8623 7.50283 18.0065C7.50283 18.1508 7.47398 18.2951 7.41626 18.4105C7.35855 18.526 7.27198 18.6414 7.15655 18.728C7.04112 18.8145 6.9257 18.8723 6.78141 18.9011C6.63713 18.93 6.46399 18.93 6.26199 18.9011C6.03114 18.8723 5.82914 18.8145 5.62714 18.728C5.42514 18.6414 5.22314 18.5548 5.02115 18.4394C4.81915 18.324 4.64601 18.2085 4.50172 18.122C4.35744 18.0065 4.21316 17.92 4.09773 17.8045L3.43402 19.9977C3.54945 20.142 3.69373 20.2862 3.83802 20.4017C4.01116 20.5459 4.1843 20.6614 4.41515 20.8057C4.61715 20.9211 4.87686 21.0365 5.10772 21.1519C5.36743 21.2674 5.62714 21.3539 5.91571 21.4117C6.5217 21.5559 7.09884 21.5848 7.64712 21.4982C8.1954 21.4117 8.71482 21.2385 9.14767 20.9499C9.60938 20.6325 9.98452 20.2285 10.2442 19.6802C10.5328 19.132 10.6771 18.4683 10.7059 17.718C10.7348 17.2563 10.6482 16.8234 10.5328 16.4483C10.4751 16.102 10.3019 15.7557 10.0711 15.4383Z" fill="white"/>
<path d="M5.30962 7.67586C5.28076 7.67586 5.28076 7.67586 5.2519 7.67586C5.02105 7.647 4.84791 7.41615 4.87677 7.18529C4.90562 6.95444 5.71361 1.44278 9.17643 0.20194C10.0421 -0.115485 10.7636 -0.0289146 11.3407 0.403938C12.0044 0.952217 12.3795 2.01992 12.4373 3.60705C12.4661 4.73246 12.3507 5.68474 12.3507 5.74245C12.3218 5.97331 12.091 6.14645 11.8601 6.11759C11.6293 6.08873 11.4561 5.85788 11.485 5.62702C11.6293 4.61703 11.7735 1.87564 10.7924 1.0965C10.475 0.83679 10.0421 0.807933 9.49386 1.03879C6.55046 2.10649 5.77133 7.27186 5.74247 7.32958C5.68476 7.53157 5.51162 7.67586 5.30962 7.67586Z" fill="#9DBD32"/>
<path d="M31.4539 14.4571C30.6747 14.0243 30.2707 13.678 30.2707 13.1874C30.2707 12.5526 30.819 12.1486 31.7136 12.1486C32.5216 12.1486 33.2141 12.3794 33.647 12.5814L34.3396 10.3883C33.849 10.0998 32.9256 9.8689 31.7424 9.8689C29.0299 9.8689 27.1831 11.3983 27.1831 13.5914C27.1831 14.8323 28.0488 15.7557 29.203 16.4194C30.1553 16.9677 30.4727 17.3428 30.4727 17.8911C30.4727 18.4682 30.011 18.9299 29.1453 18.9299C28.193 18.9588 27.1831 18.5548 26.6348 18.2662L25.8556 20.4882C26.4328 20.8922 27.6159 21.2385 28.8856 21.2385C31.6559 21.2673 33.647 19.8822 33.647 17.4294C33.6758 16.102 32.6659 15.1497 31.4539 14.4571Z" fill="white"/>
<path d="M42.4773 9.86895C41.121 9.86895 40.0533 10.5038 39.2164 11.5138L39.1587 11.4849L40.3419 5.30957H37.2542L34.2531 21.0654H37.3407L38.3796 15.6692C38.7836 13.6492 39.8224 12.3795 40.8036 12.3795C41.4961 12.3795 41.7558 12.8412 41.7558 13.5049C41.7558 13.9378 41.6981 14.4572 41.6116 14.8612L40.4573 21.0365H43.5738L44.7858 14.6592C44.9301 13.9955 45.0167 13.1875 45.0167 12.6392C45.0167 10.9078 44.0932 9.86895 42.4773 9.86895Z" fill="white"/>
<path d="M52 9.8689C48.2775 9.8689 45.8246 13.2163 45.8246 16.9388C45.8246 19.3339 47.2963 21.2385 50.0666 21.2385C53.7025 21.2385 56.1554 17.9777 56.1554 14.1686C56.1554 11.9754 54.8568 9.8689 52 9.8689ZM50.4706 18.9011C49.4317 18.9011 48.97 18.0065 48.97 16.8811C48.97 15.1208 49.8934 12.2352 51.5671 12.2352C52.6637 12.2352 53.01 13.1874 53.01 14.082C53.01 15.9865 52.0866 18.9011 50.4706 18.9011Z" fill="white"/>
<path d="M64.0621 9.8689C62.8213 9.8689 61.6381 10.5326 60.8013 11.6869H60.7436L60.9167 10.042H58.2042C58.0599 11.1675 57.829 12.87 57.5693 14.1397L55.4339 25.4227H58.5216L59.3585 20.8634H59.4162C59.7625 21.0942 60.455 21.2673 61.2342 21.2673C64.8413 21.2673 67.2364 17.5448 67.2364 13.7934C67.2364 11.7157 66.3129 9.8689 64.0621 9.8689ZM61.0899 18.9299C60.5416 18.9299 60.1376 18.7568 59.8202 18.4971L60.3396 15.6114C60.6859 13.678 61.6959 12.4083 62.7636 12.4083C63.7158 12.4083 64.0044 13.274 64.0044 14.1109C64.0044 16.102 62.8213 18.9299 61.0899 18.9299Z" fill="white"/>
<path d="M71.6226 5.42505C70.6415 5.42505 69.8624 6.20418 69.8624 7.21417C69.8624 8.13759 70.4395 8.74358 71.3052 8.74358H71.3629C72.3152 8.74358 73.152 8.10873 73.1809 6.95446C73.1809 6.08876 72.5749 5.42505 71.6226 5.42505Z" fill="white"/>
<path d="M67.323 21.0366H70.4106L72.4883 10.0999H69.4006L67.323 21.0366Z" fill="white"/>
<path d="M80.3374 10.0709H78.202L78.3175 9.55152C78.4906 8.51267 79.1255 7.5604 80.1354 7.5604C80.5394 7.5604 80.8569 7.61811 81.1166 7.70468L81.7226 5.28071C81.3763 5.13642 80.7991 5.021 80.0489 5.021C78.9523 5.021 77.8557 5.33842 77.0189 6.05984C75.9801 6.9544 75.4895 8.25296 75.2298 9.55152L75.1432 10.0709H73.7004L73.2675 12.4083H74.7104L73.0655 21.0365H76.1532L77.798 12.4083H79.9334L80.3374 10.0709Z" fill="white"/>
<path d="M87.7536 10.0999L85.8779 15.0055C85.4451 16.1886 85.2142 16.8812 84.9545 17.6315H84.8968C84.8391 16.9101 84.7525 16.1309 84.6371 15.0344L84.1465 10.1287H80.9145L82.7614 20.1709C82.8191 20.4017 82.7902 20.5172 82.7036 20.6903C82.3574 21.3829 81.7514 22.0466 81.0299 22.5371C80.4528 22.97 79.7891 23.2297 79.2985 23.4029L80.1354 26.0288C80.7702 25.8845 82.0688 25.394 83.1654 24.3551C84.5793 23.0277 85.8779 21.0077 87.2053 18.2375L90.9856 10.1576H87.7536V10.0999Z" fill="white"/>
</g>
<defs>
<clipPath id="clip0">
<rect width="155.711" height="26" fill="white"/>
</clipPath>
</defs>
</svg>

<svg xmlns="http://www.w3.org/2000/svg" width="156" height="26" fill="none" xmlns:v="https://vecta.io/nano"><g clip-path="url(#A)"><g fill="#fff"><path d="M92.832 25.336l2.135-11.514.606-3.78h.923l-.346 2.309h.058c.952-1.443 2.309-2.453 3.723-2.453 2.02 0 2.799 1.674 2.799 3.434 0 3.607-2.481 7.763-5.886 7.763-1.039 0-1.731-.375-2.135-.375h-.058l-.837 4.617h-.981zm2.02-5.829c.491.375 1.212.606 2.078.606 2.828 0 4.79-4.011 4.79-6.752 0-1.27-.49-2.684-2.077-2.684-1.529 0-3.492 1.933-4.098 5.165l-.693 3.665zm15.121 1.501c-.029-.866.116-1.731.26-2.886h-.058c-1.212 2.308-2.597 2.972-3.982 2.972-1.616 0-2.597-1.414-2.597-3.319 0-3.665 2.597-7.936 6.752-7.936.751 0 1.616.087 2.165.289l-1.126 5.887c-.375 2.02-.519 3.838-.461 4.992h-.953zm1.414-10.215c-.231-.087-.635-.144-1.298-.144-3.088 0-5.483 3.434-5.512 6.81-.029 1.414.375 2.655 1.818 2.655 1.732 0 3.694-2.597 4.213-5.367l.779-3.953zm1.818 10.215l1.357-7.33.519-3.636h.866l-.289 2.597h.058c.635-1.443 1.702-2.684 3.059-2.684.144 0 .288-.058.404-.058l-.202.981c-.087-.029-.202-.029-.347-.029-1.414 0-2.972 2.251-3.405 4.588l-1.038 5.569h-.982zm10.331-13.332l-.462 2.337h2.511l-.173.866h-2.511l-1.183 6.349c-.144.721-.231 1.27-.231 1.847 0 .635.289 1.01.953 1.01.346 0 .577-.029.779-.087l.057.779a3.74 3.74 0 0 1-1.038.144c-1.27 0-1.761-.837-1.761-1.731 0-.577.058-1.125.231-1.933l1.212-6.348h-1.529l.144-.866h1.558l.347-1.933 1.096-.433zm1.934 13.332l1.414-7.676.461-3.29h.924l-.318 2.309h.058c.923-1.443 2.28-2.482 3.751-2.482 1.039 0 2.395.635 2.395 2.655 0 .548-.086 1.183-.202 1.76l-1.212 6.695h-.952l1.241-6.724a9.57 9.57 0 0 0 .144-1.616c0-1.126-.433-1.962-1.76-1.962-1.414 0-3.463 1.905-3.924 4.502l-1.039 5.8h-.981v.029zm16.39-.895c-.548.375-1.587.808-2.914.808-2.511 0-3.377-1.962-3.377-4.011 0-3.088 2.165-7.099 5.224-7.099 1.76 0 2.51 1.125 2.51 2.337 0 2.713-3.116 3.463-6.608 3.463-.116.491-.144 1.905.086 2.684.376 1.212 1.212 1.818 2.338 1.818 1.183 0 1.991-.433 2.482-.721l.259.721zm.462-7.936c0-.981-.693-1.529-1.703-1.529-1.644 0-3.116 1.789-3.78 4.098 2.799.029 5.483-.433 5.483-2.568zm1.616 8.831l1.356-7.33.52-3.636h.865l-.288 2.597h.057c.635-1.443 1.703-2.684 3.059-2.684.145 0 .289-.058.404-.058l-.202.981c-.086-.029-.202-.029-.346-.029-1.414 0-2.972 2.251-3.405 4.588l-1.039 5.569h-.981zm5.627-1.53a3.28 3.28 0 0 0 1.876.606c1.414 0 2.366-1.01 2.366-2.222 0-1.068-.433-1.703-1.443-2.366-1.068-.693-1.645-1.645-1.645-2.655 0-1.674 1.356-3.03 3.261-3.03.721 0 1.443.231 1.76.462l-.346.837c-.346-.202-.895-.433-1.529-.433-1.299 0-2.165.923-2.165 2.02 0 1.01.577 1.558 1.443 2.164 1.039.693 1.645 1.674 1.645 2.77 0 2.164-1.587 3.347-3.434 3.347-.952 0-1.818-.346-2.164-.635l.375-.866z"/></g><g fill="#9dbd32"><path d="M8.34 8.426h-.058c-.231-.029-.462-.26-.462-.491S7.676 2.193 10.908.952c.808-.317 1.558-.231 2.193.202.75.548 1.327 1.645 1.674 3.232.231 1.125.289 2.078.289 2.135 0 .231-.173.404-.433.375-.231-.029-.462-.26-.462-.491-.029-1.01-.375-3.751-1.501-4.531-.346-.26-.779-.289-1.327-.058-2.77 1.068-2.626 6.233-2.626 6.291 0 .173-.173.317-.375.317z"/><path d="M15.236 3.03L2.741 6.897s-.548.144-.664.289c-.115.173-.144.606-.144.606L0 22.681l14.486 2.713 1.097-22.393c-.144-.029-.317 0-.346.029z"/></g><path d="M19.536 4.934s-.029-.115-.087-.144-.144-.058-.144-.058l-2.049-.144-1.5-1.501c-.058-.058-.116-.058-.202-.087l-1.068 22.393 7.849-1.703-2.799-18.757z" fill="#608d2f"/><path d="M10.071 15.438c-.231-.289-.491-.548-.75-.779s-.548-.433-.837-.606a4.06 4.06 0 0 1-.519-.346 1.96 1.96 0 0 1-.346-.346c-.087-.115-.173-.231-.202-.346-.058-.115-.058-.231-.058-.346 0-.173.058-.317.115-.462s.144-.26.26-.346.26-.173.404-.231c.173-.058.346-.087.548-.115l.635.029c.202.029.404.058.577.115s.346.087.519.144l.404.173.952-2.886c-.144-.087-.317-.144-.519-.202a4.48 4.48 0 0 0-.664-.144c-.231-.029-.519-.058-.779-.058-.289 0-.577.029-.866.058-.664.087-1.241.26-1.76.519s-.952.577-1.299.981c-.346.375-.635.837-.837 1.327a4.89 4.89 0 0 0-.346 1.616c-.029.346.029.664.087.981a4.26 4.26 0 0 0 .346.837c.144.26.346.491.548.722s.462.433.693.606c.202.144.375.289.519.433s.26.26.346.404a2.64 2.64 0 0 1 .202.404c.029.144.058.289.058.433a.92.92 0 0 1-.087.404.9.9 0 0 1-.26.318c-.115.086-.231.144-.375.173s-.317.029-.519 0c-.231-.029-.433-.087-.635-.173l-.606-.289-.519-.317c-.144-.116-.289-.202-.404-.317l-.664 2.193c.115.144.26.289.404.404.173.144.346.26.577.404.202.115.462.231.693.346.26.115.519.202.808.26.606.144 1.183.173 1.731.087s1.068-.26 1.501-.548c.462-.317.837-.721 1.097-1.27.289-.548.433-1.212.462-1.962.029-.462-.058-.895-.173-1.27-.058-.346-.231-.693-.462-1.01z" fill="#fff"/><path d="M5.31 7.676h-.058a.45.45 0 0 1-.375-.491c.029-.231.837-5.743 4.3-6.983.866-.317 1.587-.231 2.164.202.664.548 1.039 1.616 1.097 3.203.029 1.125-.087 2.078-.087 2.135a.45.45 0 0 1-.491.375.45.45 0 0 1-.375-.491c.144-1.01.289-3.751-.693-4.531-.317-.26-.75-.289-1.299-.058C6.55 2.106 5.771 7.272 5.742 7.33a.46.46 0 0 1-.433.346z" fill="#9dbd32"/><g fill="#fff"><path d="M31.454 14.457c-.779-.433-1.183-.779-1.183-1.27 0-.635.548-1.039 1.443-1.039.808 0 1.501.231 1.933.433l.693-2.193c-.491-.288-1.414-.519-2.597-.519-2.712 0-4.559 1.529-4.559 3.723 0 1.241.866 2.164 2.02 2.828.952.548 1.27.923 1.27 1.472 0 .577-.462 1.039-1.327 1.039-.952.029-1.962-.375-2.511-.664l-.779 2.222c.577.404 1.76.75 3.03.75 2.77.029 4.761-1.356 4.761-3.809.029-1.327-.981-2.28-2.193-2.972zm11.023-4.588c-1.356 0-2.424.635-3.261 1.645l-.058-.029 1.183-6.175h-3.088l-3.001 15.756h3.088l1.039-5.396c.404-2.02 1.443-3.29 2.424-3.29.692 0 .952.462.952 1.125a6.98 6.98 0 0 1-.144 1.356l-1.154 6.175h3.117l1.212-6.377a10.58 10.58 0 0 0 .231-2.02c0-1.731-.923-2.77-2.539-2.77zm9.523 0c-3.722 0-6.175 3.347-6.175 7.07 0 2.395 1.472 4.3 4.242 4.3 3.636 0 6.089-3.261 6.089-7.07 0-2.193-1.299-4.3-4.155-4.3zm-1.529 9.032c-1.039 0-1.501-.895-1.501-2.02 0-1.76.923-4.646 2.597-4.646 1.097 0 1.443.952 1.443 1.847 0 1.904-.923 4.819-2.539 4.819zm13.591-9.032c-1.241 0-2.424.664-3.261 1.818h-.058l.173-1.645h-2.712l-.635 4.098-2.135 11.283h3.088l.837-4.559h.058c.346.231 1.039.404 1.818.404 3.607 0 6.002-3.722 6.002-7.474 0-2.078-.924-3.924-3.174-3.924zM61.09 18.93c-.548 0-.952-.173-1.27-.433l.519-2.886c.346-1.933 1.356-3.203 2.424-3.203.952 0 1.241.866 1.241 1.703 0 1.991-1.183 4.819-2.915 4.819zM71.623 5.425c-.981 0-1.76.779-1.76 1.789 0 .923.577 1.529 1.443 1.529h.058c.952 0 1.789-.635 1.818-1.789 0-.866-.606-1.529-1.558-1.529zm-4.3 15.612h3.088L72.488 10.1H69.4l-2.078 10.937zm13.014-10.966h-2.135l.115-.519c.173-1.039.808-1.991 1.818-1.991.404 0 .721.058.981.144l.606-2.424c-.346-.144-.924-.26-1.674-.26-1.097 0-2.193.317-3.03 1.039-1.039.895-1.529 2.193-1.789 3.492l-.087.519H73.7l-.433 2.337h1.443l-1.645 8.628h3.088l1.645-8.628h2.135l.404-2.337zm7.417.029l-1.876 4.906-.923 2.626h-.058l-.26-2.597-.491-4.906h-3.232l1.847 10.042a.63.63 0 0 1-.058.519c-.346.693-.952 1.356-1.674 1.847-.577.433-1.241.693-1.731.866l.837 2.626c.635-.144 1.933-.635 3.03-1.674 1.414-1.327 2.712-3.347 4.04-6.118l3.78-8.08h-3.232V10.1z"/></g></g><defs><clipPath id="A"><path fill="#fff" d="M0 0h155.711v26H0z"/></clipPath></defs></svg>
